X:1
T:Turn Around
M:3/4
L:1/4
K:A
 E E E| B B B| c/2B/2 A2| A/2G/2 F2| E E E| B B B| A G F| B2 G/2F/2|\
 E E E| B2 B/2B/2| c3/2 c/2 c| A2 G/2A/2| B3/2 B/2B/2 c/2| B A G/2G/2|\
 F G F| F2 z|||
